Numix/22x22/status/battery-040-charging.svg

<?xml version="1.0" encoding="UTF-8" standalone="no"?>
<svg
   xmlns:dc="http://purl.org/dc/elements/1.1/"
   xmlns:cc="http://creativecommons.org/ns#"
   xmlns:rdf="http://www.w3.org/1999/02/22-rdf-syntax-ns#"
   xmlns:svg="http://www.w3.org/2000/svg"
   xmlns="http://www.w3.org/2000/svg"
   xmlns:sodipodi="http://sodipodi.sourceforge.net/DTD/sodipodi-0.dtd"
   xmlns:inkscape="http://www.inkscape.org/namespaces/inkscape"
   width="22"
   viewBox="0 0 22 22"
   height="22"
   id="svg5177"
   version="1.1"
   inkscape:version="0.48.4 r9939"
   sodipodi:docname="battery-040-charging.svg">
  <metadata
     id="metadata5189">
    <rdf:RDF>
      <cc:Work
         rdf:about="">
        <dc:format>image/svg+xml</dc:format>
        <dc:type
           rdf:resource="http://purl.org/dc/dcmitype/StillImage" />
      </cc:Work>
    </rdf:RDF>
  </metadata>
  <defs
     id="defs5187" />
  <sodipodi:namedview
     pagecolor="#ffffff"
     bordercolor="#666666"
     borderopacity="1"
     objecttolerance="10"
     gridtolerance="10"
     guidetolerance="10"
     inkscape:pageopacity="0"
     inkscape:pageshadow="2"
     inkscape:window-width="1261"
     inkscape:window-height="480"
     id="namedview5185"
     showgrid="false"
     inkscape:zoom="22.627417"
     inkscape:cx="12.824421"
     inkscape:cy="10.022072"
     inkscape:window-x="10"
     inkscape:window-y="34"
     inkscape:window-maximized="0"
     inkscape:current-layer="svg5177" />
  <g
     id="g5733"
     transform="matrix(1,0,0,0.83333333,-35.203389,-5.0903957)">
    <path
       id="path5181-3"
       d="m 18.203389,17.508475 -2.5,0 0,-3 -17.5,0 0,12 17.5,0 0,-3 2.5,0 0,-6 z m -3.75,5 -6.25,-1 0,3 -8.75,-6 6.25,1 0,-3 8.75,6 z"
       inkscape:connector-curvature="0"
       style="opacity:0.12000002;fill:#000000;fill-opacity:1" />
    <path
       id="path5183-6"
       d="m 6.953389,14.508475 -8.75,0 0,12 8.75,0 0,-2.84375 -7.5,-5.15625 6.25,1 0,-3 1.25,0.84375 0,-2.84375 z"
       inkscape:connector-curvature="0"
       style="opacity:0.3;fill:#000000;fill-opacity:1" />
  </g>
  <g
     id="g5191"
     transform="matrix(0,0.83333333,-1.25,0,-13.25,1.8333334)">
    <path
       id="path5181"
       d="M 8,3 8,5 5,5 5,19 17,19 17,5 14,5 14,3 8,3 z m 5,3 -1,5 3,0 -6,7 1,-5 -3,0 6,-7 z"
       inkscape:connector-curvature="0"
       style="opacity:0.4;fill:#dcdcdc" />
    <path
       id="path5183"
       d="m 5,12 0,7 12,0 0,-7 -2.84375,0 L 9,18 10,13 7,13 7.84375,12 5,12 z"
       inkscape:connector-curvature="0"
       style="fill:#dedede" />
  </g>
  <path
     inkscape:connector-curvature="0"
     id="rect20-4"
     d="m -16.5,15.8125 c -0.277,0 -0.5,0.08058 -0.5,0.1875 l 0,2.3125 c 0,0.106921 0.223,0.1875 0.5,0.1875 l 2.9375,0 0.125,-0.625 -1.5625,0 c -0.54321,-0.0112 -0.910719,-0.746215 -0.59375,-1.1875 l 0.6875,-0.875 -1.59375,0 z"
     style="opacity:0.3;fill:#000000;fill-opacity:1;fill-rule:evenodd" />
  <path
     inkscape:connector-curvature="0"
     id="path14-4"
     d="m 10.4375,3.499999 c -0.716723,0.05413 -1.38323,0.58003 -1.437501,1.375 l 0,0.03125 c -6.14e-4,0.200917 4.85e-4,0.392866 0,0.59375 l -0.5,0 C 7.677815,5.499999 7,6.178369 7,6.999999 L 7,19 c 0,0.821632 0.677815,1.5 1.499999,1.5 l 3.562501,0 0.1875,-1 -3.750001,0 c -0.285817,0 -0.5,-0.215052 -0.5,-0.5 l 0,-12.000001 c 0,-0.284947 0.214183,-0.5 0.5,-0.5 l 5.000001,0 c 0.285816,0 0.5,0.215053 0.5,0.5 l 0,5.125 1,-1.28125 0,-3.84375 c 0,-0.82163 -0.677816,-1.5 -1.5,-1.5 l -0.5,0 C 13.0043,5.365103 13.0053,5.257233 13,5.093749 12.98984,4.779355 12.92224,4.394584 12.65625,4.062499 12.367937,3.69128 11.940156,3.565178 11.59375,3.531249 c -0.333594,-0.03267 -0.602143,-0.02522 -0.8125,-0.03125 -0.0081,-2.31e-4 -0.02342,3.44e-4 -0.03125,0 -0.102605,-0.01238 -0.210111,-0.0077 -0.3125,0 z m 0.21875,1 0.03125,0 c 0.321268,0.01411 0.609186,0.01133 0.8125,0.03125 0.203314,0.01991 0.285313,0.04077 0.375,0.15625 0.08477,0.105832 0.118053,0.222593 0.125,0.4375 0.0032,0.09919 0.0043,0.25062 0,0.375 l -2.000001,0 c 4.5e-4,-0.184204 -5.55e-4,-0.378332 0,-0.5625 0.01872,-0.274247 0.360816,-0.479068 0.656251,-0.4375 z"
     style="font-size:medium;font-style:normal;font-variant:normal;font-weight:normal;font-stretch:normal;text-indent:0;text-align:start;text-decoration:none;line-height:normal;letter-spacing:normal;word-spacing:normal;text-transform:none;direction:ltr;block-progression:tb;writing-mode:lr-tb;text-anchor:start;baseline-shift:baseline;opacity:0.3;color:#000000;fill:#000000;fill-opacity:1;stroke:none;stroke-width:1;marker:none;visibility:visible;display:inline;overflow:visible;enable-background:accumulate;font-family:Sans;-inkscape-font-specification:Sans" />
  <path
     style="font-size:medium;font-style:normal;font-variant:normal;font-weight:normal;font-stretch:normal;text-indent:0;text-align:start;text-decoration:none;line-height:normal;letter-spacing:normal;word-spacing:normal;text-transform:none;direction:ltr;block-progression:tb;writing-mode:lr-tb;text-anchor:start;baseline-shift:baseline;opacity:0.3;color:#000000;fill:#000000;fill-opacity:1;fill-rule:nonzero;stroke:none;stroke-width:0;marker:none;visibility:visible;display:inline;overflow:visible;enable-background:accumulate;font-family:Sans;-inkscape-font-specification:Sans"
     d="m 17.5,15.362212 -2.452829,0 0.797171,-4.362217 L 11,17.137789 13.452829,17.115859 12.655658,21.5 z"
     id="rect8260-9"
     inkscape:connector-curvature="0"
     sodipodi:nodetypes="ccccccc" />
  <path
     inkscape:connector-curvature="0"
     id="path14"
     d="M 10.4375,2.499999 C 9.720777,2.554139 9.054271,3.080029 9,3.874999 l 0,0.03125 c -6.14e-4,0.200917 4.85e-4,0.392866 0,0.59375 l -0.5,0 c -0.822184,0 -1.5,0.67837 -1.5,1.5 L 7,18 c 0,0.821632 0.677816,1.5 1.5,1.5 l 3.5625,0 0.1875,-1 -3.75,0 C 8.214183,18.5 8,18.284948 8,18 L 8,5.999999 c 0,-0.284947 0.214183,-0.5 0.5,-0.5 l 5,0 c 0.285816,0 0.5,0.215053 0.5,0.5 l 0,5.125 1,-1.28125 0,-3.84375 c 0,-0.82163 -0.677816,-1.5 -1.5,-1.5 l -0.5,0 C 13.0043,4.365103 13.0053,4.257233 13,4.093749 12.98984,3.779355 12.92224,3.394584 12.65625,3.062499 12.367937,2.69128 11.940156,2.565178 11.59375,2.531249 c -0.333594,-0.03267 -0.602143,-0.02522 -0.8125,-0.03125 -0.0081,-2.31e-4 -0.02342,3.44e-4 -0.03125,0 -0.102605,-0.01238 -0.210111,-0.0077 -0.3125,0 z m 0.21875,1 0.03125,0 c 0.321268,0.01411 0.609186,0.01133 0.8125,0.03125 0.203314,0.01991 0.285313,0.04077 0.375,0.15625 0.08477,0.105832 0.118053,0.222593 0.125,0.4375 0.0032,0.09919 0.0043,0.25062 0,0.375 l -2,0 c 4.49e-4,-0.184204 -5.56e-4,-0.378332 0,-0.5625 0.01872,-0.274247 0.360815,-0.479068 0.65625,-0.4375 z"
     style="font-size:medium;font-style:normal;font-variant:normal;font-weight:normal;font-stretch:normal;text-indent:0;text-align:start;text-decoration:none;line-height:normal;letter-spacing:normal;word-spacing:normal;text-transform:none;direction:ltr;block-progression:tb;writing-mode:lr-tb;text-anchor:start;baseline-shift:baseline;color:#000000;fill:#dcdcdc;fill-opacity:1;stroke:none;stroke-width:1;marker:none;visibility:visible;display:inline;overflow:visible;enable-background:accumulate;font-family:Sans;-inkscape-font-specification:Sans" />
  <path
     inkscape:connector-curvature="0"
     id="rect20"
     d="m -16.5,14.8125 c -0.277,0 -0.5,0.08058 -0.5,0.1875 l 0,2.3125 c 0,0.106921 0.223,0.1875 0.5,0.1875 l 2.9375,0 0.125,-0.625 -1.5625,0 c -0.54321,-0.0112 -0.910719,-0.746215 -0.59375,-1.1875 l 0.6875,-0.875 -1.59375,0 z"
     style="fill:#dcdcdc;fill-opacity:1;fill-rule:evenodd" />
  <path
     inkscape:connector-curvature="0"
     style="opacity:0.4;fill:#dcdcdc;fill-rule:evenodd"
     d="m 9.5,6.499999 c -0.277,0 -0.5,0.22543 -0.5,0.5 L 9,17 c 0,0.274571 0.223,0.5 0.5,0.5 l 2.9375,0 0.125,-0.625 -1.5625,0 C 10.45679,16.8638 10.089281,16.128785 10.40625,15.6875 L 13,12.406249 13,6.999999 c 0,-0.27457 -0.223,-0.5 -0.5,-0.5 l -3,0 z"
     id="rect20-7" />
  <path
     style="font-size:medium;font-style:normal;font-variant:normal;font-weight:normal;font-stretch:normal;text-indent:0;text-align:start;text-decoration:none;line-height:normal;letter-spacing:normal;word-spacing:normal;text-transform:none;direction:ltr;block-progression:tb;writing-mode:lr-tb;text-anchor:start;baseline-shift:baseline;color:#000000;fill:#dcdcdc;fill-opacity:1;fill-rule:nonzero;stroke:none;stroke-width:0;marker:none;visibility:visible;display:inline;overflow:visible;enable-background:accumulate;font-family:Sans;-inkscape-font-specification:Sans"
     d="m 17.5,14.362212 -2.452829,0 L 15.844342,9.999995 11,16.137789 13.452829,16.115859 12.655658,20.5 z"
     id="rect8260"
     inkscape:connector-curvature="0"
     sodipodi:nodetypes="ccccccc" />
  <path
     inkscape:connector-curvature="0"
     style="opacity:0.3;fill:#000000;fill-opacity:1;fill-rule:evenodd"
     d="M 9.5,13.6 C 9.223,13.6 9,13.82543 9,14.1 L 9,18 c 0,0.274571 0.223,0.5 0.5,0.5 l 2.9375,0 0.125,-0.625 -1.5625,0 C 10.45679,17.8638 10.089281,17.128785 10.40625,16.6875 L 12.726,13.754 c 0,0 0.258966,-0.311357 0,0 C 12.65821,13.6665 12.581403,13.6 12.5,13.6 z"
     id="rect20-7-7-1"
     sodipodi:nodetypes="ssssccccccss" />
  <path
     inkscape:connector-curvature="0"
     style="fill:#dcdcdc;fill-rule:evenodd"
     d="M 9.5,12.6 C 9.223,12.6 9,12.82543 9,13.1 L 9,17 c 0,0.274571 0.223,0.5 0.5,0.5 l 2.9375,0 0.125,-0.625 -1.5625,0 C 10.45679,16.8638 10.089281,16.128785 10.40625,15.6875 L 12.726,12.754 c 0,0 0.258966,-0.311357 0,0 C 12.658213,12.6665 12.581403,12.6 12.5,12.6 z"
     id="rect20-7-7"
     sodipodi:nodetypes="ssssccccccss" />
</svg>

<svg xmlns="http://www.w3.org/2000/svg" width="22" viewBox="0 0 22 22" height="22">
 <path d="m 5,13 0,7 12,0 0,-7 -2.84375,0 L 9,19 10,14 7,14 7.84375,13 5,13 z" opacity="0.3"/>
 <path d="M 8 3 L 8 5 L 5 5 L 5 19 L 17 19 L 17 5 L 14 5 L 14 3 L 8 3 z M 13 6 L 12 11 L 15 11 L 9 18 L 10 13 L 7 13 L 13 6 z " opacity="0.4" fill="#dcdcdc"/>
 <path d="M 5 12 L 5 19 L 17 19 L 17 12 L 14.15625 12 L 9 18 L 10 13 L 7 13 L 7.84375 12 L 5 12 z " fill="#dedede"/>
</svg>
